;FLAVOR:Marlin
;TIME:27494
;Filament used: 27.8095m
;Layer height: 0.25
;MINX:51.501
;MINY:71.5
;MINZ:0.2
;MAXX:176.773
;MAXY:163.5
;MAXZ:59.95
;Generated with Cura_SteamEngine main
M140 S110
M105
M190 S110
M104 S245
M105
M109 S245
M82 ;absolute extrusion mode
; Ender 3 Custom Start G-code
G92 E0 ; Reset Extruder
G28 ; Home all axes
G1 Z2.0 F3000 ; Move Z Axis up little to prevent scratching of Heat Bed
G1 X0.1 Y20 Z0.3 F5000.0 ; Move to start position
G1 X0.1 Y200.0 Z0.3 F1500.0 E15 ; Draw the first line
G1 X0.4 Y200.0 Z0.3 F5000.0 ; Move to side a little
G1 X0.4 Y20 Z0.3 F1500.0 E30 ; Draw the second line
G92 E0 ; Reset Extruder
G1 Z2.0 F3000 ; Move Z Axis up little to prevent scratching of Heat Bed
G1 X5 Y20 Z0.3 F5000.0 ; Move over to prevent blob squish
G92 E0
G92 E0
G1 F2700 E-5
;LAYER_COUNT:240
;LAYER:0
M107
G0 F6000 X56.127 Y73.551 Z0.2
G0 X51.502 Y83.025
;TYPE:SKIRT
G1 F2700 E0
G1 F1200 X51.511 Y82.36 E0.02212
G1 X51.564 Y81.424 E0.0533
G1 X51.696 Y80.495 E0.08451
G1 X51.907 Y79.581 E0.11571
G1 X52.195 Y78.689 E0.14689
G1 X52.558 Y77.824 E0.17809
G1 X52.993 Y76.993 E0.20928
G1 X53.497 Y76.203 E0.24045
G1 X54.067 Y75.458 E0.27165
G1 X54.699 Y74.764 E0.30287
G1 X55.387 Y74.127 E0.33405
G1 X56.127 Y73.551 E0.36524
G1 X56.913 Y73.039 E0.39644
G1 X57.74 Y72.597 E0.42763
G1 X58.602 Y72.227 E0.45883
G1 X59.492 Y71.931 E0.49003
G1 X60.404 Y71.713 E0.52122
G1 X61.331 Y71.572 E0.5524
G1 X62.202 Y71.513 E0.58144
G1 X62.831 Y71.5 E0.60236
G1 X161.952 Y71.501 E3.89914
G1 X162.65 Y71.511 E3.92236
G1 X163.586 Y71.565 E3.95354
G1 X164.514 Y71.697 E3.98472
G1 X165.428 Y71.909 E4.01593
G1 X166.32 Y72.198 E4.04711
G1 X167.185 Y72.561 E4.07831
G1 X168.015 Y72.997 E4.1095
G1 X168.806 Y73.502 E4.14071
G1 X169.55 Y74.073 E4.1719
G1 X170.243 Y74.705 E4.2031
G1 X170.88 Y75.393 E4.23428
G1 X171.455 Y76.134 E4.26548
G1 X171.966 Y76.92 E4.29666
G1 X172.408 Y77.748 E4.32788
G1 X172.777 Y78.61 E4.35906
G1 X173.072 Y79.5 E4.39025
G1 X173.29 Y80.412 E4.42144
G1 X173.43 Y81.34 E4.45265
G1 X173.488 Y82.201 E4.48135
G1 X173.501 Y82.83 E4.50228
G1 X173.501 Y117.083 E5.64154
G1 X173.538 Y119.691 E5.72829
G1 X173.645 Y122.212 E5.81221
G1 X173.822 Y124.707 E5.89541
G1 X174.07 Y127.207 E5.97896
G1 X174.389 Y129.7 E6.06256
G1 X174.78 Y132.193 E6.14649
G1 X175.243 Y134.683 E6.23073
G1 X175.768 Y137.12 E6.31364
G1 X176.446 Y139.882 E6.40823
G1 X176.63 Y140.802 E6.43944
G1 X176.758 Y142.166 E6.485
G1 X176.773 Y142.83 E6.50709
G1 X176.771 Y151.928 E6.80969
G1 X176.761 Y152.644 E6.83351
G1 X176.708 Y153.58 E6.86469
G1 X176.575 Y154.508 E6.89587
G1 X176.364 Y155.422 E6.92707
G1 X176.076 Y156.315 E6.95828
G1 X175.712 Y157.179 E6.98946
G1 X175.277 Y158.01 E7.02066
G1 X174.772 Y158.8 E7.05185
G1 X174.202 Y159.545 E7.08305
G1 X173.57 Y160.238 E7.11424
G1 X172.882 Y160.875 E7.14543
G1 X172.142 Y161.451 E7.17661
G1 X171.355 Y161.962 E7.20782
G1 X170.528 Y162.404 E7.23901
G1 X169.666 Y162.774 E7.27021
G1 X168.776 Y163.069 E7.3014
G1 X167.864 Y163.287 E7.33259
G1 X166.936 Y163.427 E7.3638
G1 X166.095 Y163.485 E7.39184
G1 X165.432 Y163.5 E7.4139
G1 X147.339 Y163.5 E8.01567
G1 X145.498 Y163.493 E8.0769
G1 X144.604 Y163.5 E8.10664
G1 X63.066 Y163.499 E10.8186
G1 X62.368 Y163.49 E10.84182
G1 X61.432 Y163.438 E10.873
G1 X60.503 Y163.306 E10.90421
G1 X59.589 Y163.096 E10.9354
G1 X58.696 Y162.809 E10.9666
G1 X57.831 Y162.446 E10.9978
G1 X57 Y162.012 E11.02898
G1 X56.209 Y161.508 E11.06018
G1 X55.464 Y160.938 E11.09138
G1 X54.77 Y160.307 E11.12257
G1 X54.133 Y159.62 E11.15373
G1 X53.556 Y158.88 E11.18494
G1 X53.044 Y158.094 E11.21614
G1 X52.601 Y157.267 E11.24735
G1 X52.23 Y156.406 E11.27853
G1 X51.934 Y155.516 E11.30973
G1 X51.715 Y154.604 E11.34092
G1 X51.574 Y153.677 E11.37211
G1 X51.514 Y152.788 E11.40174
G1 X51.501 Y152.158 E11.4227
G1 X51.502 Y83.025 E13.72208
G0 F6000 X51.902 Y83.031
G1 F1200 X51.911 Y82.366 E13.7442
G1 X51.963 Y81.446 E13.77484
G1 X52.095 Y80.535 E13.80546
G1 X52.306 Y79.639 E13.83608
G1 X52.593 Y78.764 E13.8667
G1 X52.956 Y77.918 E13.89732
G1 X53.39 Y77.106 E13.92795
G1 X53.893 Y76.335 E13.95856
G1 X54.462 Y75.611 E13.98919
G1 X55.09 Y74.939 E14.01978
G1 X55.775 Y74.323 E14.05042
G1 X56.511 Y73.77 E14.08104
G1 X57.292 Y73.282 E14.11167
G1 X58.112 Y72.864 E14.14229
G1 X58.966 Y72.519 E14.17292
G1 X59.846 Y72.249 E14.20353
G1 X60.746 Y72.057 E14.23414
G1 X61.66 Y71.943 E14.26478
G1 X62.213 Y71.913 E14.2832
G1 X62.831 Y71.9 E14.30376
G1 X161.946 Y71.901 E17.60034
G1 X162.644 Y71.911 E17.62355
G1 X163.563 Y71.964 E17.65417
G1 X164.474 Y72.097 E17.68479
G1 X165.37 Y72.308 E17.71541
G1 X166.244 Y72.596 E17.74601
G1 X167.091 Y72.959 E17.77666
G1 X167.902 Y73.394 E17.80727
G1 X168.672 Y73.898 E17.83788
G1 X169.396 Y74.467 E17.86851
G1 X170.068 Y75.097 E17.89915
G1 X170.683 Y75.782 E17.92976
G1 X171.236 Y76.518 E17.96038
G1 X171.723 Y77.299 E17.991
G1 X172.14 Y78.12 E18.02162
G1 X172.485 Y78.974 E18.05226
G1 X172.754 Y79.854 E18.08286
G1 X172.946 Y80.755 E18.1135
G1 X173.059 Y81.668 E18.1441
G1 X173.088 Y82.212 E18.16222
G1 X173.101 Y82.83 E18.18278
G1 X173.101 Y117.089 E19.32224
G1 X173.138 Y119.714 E19.40956
G1 X173.245 Y122.222 E19.49305
G1 X173.423 Y124.742 E19.57707
G1 X173.672 Y127.257 E19.66113
G1 X173.991 Y129.746 E19.74459
G1 X174.392 Y132.298 E19.83051
G1 X174.844 Y134.729 E19.91275
G1 X175.383 Y137.235 E19.99801
G1 X176.057 Y139.978 E20.09196
G1 X176.238 Y140.88 E20.12256
G1 X176.358 Y142.178 E20.16591
G1 X176.373 Y142.83 E20.1876
G1 X176.371 Y151.922 E20.49
G1 X176.361 Y152.638 E20.51382
G1 X176.308 Y153.557 E20.54444
G1 X176.176 Y154.468 E20.57505
G1 X175.965 Y155.364 E20.60567
G1 X175.677 Y156.239 E20.63631
G1 X175.314 Y157.085 E20.66693
G1 X174.879 Y157.897 E20.69757
G1 X174.376 Y158.667 E20.72816
G1 X173.807 Y159.392 E20.75881
G1 X173.178 Y160.064 E20.78942
G1 X172.493 Y160.679 E20.82004
G1 X171.757 Y161.232 E20.85066
G1 X170.976 Y161.719 E20.88127
G1 X170.156 Y162.137 E20.91189
G1 X169.302 Y162.481 E20.94251
G1 X168.422 Y162.751 E20.97312
G1 X167.521 Y162.943 E21.00376
G1 X166.608 Y163.056 E21.03436
G1 X166.083 Y163.085 E21.05185
G1 X165.432 Y163.1 E21.07351
G1 X147.34 Y163.1 E21.67525
G1 X145.496 Y163.093 E21.73658
G1 X144.601 Y163.1 E21.76635
G1 X63.071 Y163.099 E24.47805
G1 X62.373 Y163.09 E24.50127
G1 X61.454 Y163.038 E24.53188
G1 X60.543 Y162.907 E24.5625
G1 X59.647 Y162.697 E24.5931
G1 X58.772 Y162.41 E24.62373
G1 X57.925 Y162.048 E24.65437
G1 X57.113 Y161.614 E24.68499
G1 X56.342 Y161.112 E24.71559
G1 X55.617 Y160.544 E24.74622
G1 X54.944 Y159.915 E24.77686
G1 X54.329 Y159.231 E24.80746
G1 X53.775 Y158.496 E24.83807
G1 X53.287 Y157.715 E24.8687
G1 X52.868 Y156.895 E24.89933
G1 X52.522 Y156.042 E24.92994
G1 X52.252 Y155.162 E24.96056
G1 X52.059 Y154.261 E24.99121
G1 X51.945 Y153.348 E25.02181
G1 X51.914 Y152.777 E25.04083
G1 X51.901 Y152.158 E25.06142
G1 X51.902 Y83.031 E27.36059
G0 F6000 X52.302 Y83.036
G1 F1200 X52.311 Y82.371 E27.38271
G1 X52.363 Y81.469 E27.41276
G1 X52.495 Y80.576 E27.44279
G1 X52.705 Y79.698 E27.47281
G1 X52.992 Y78.841 E27.50287
G1 X53.354 Y78.014 E27.5329
G1 X53.787 Y77.222 E27.56292
G1 X54.289 Y76.471 E27.59297
G1 X54.856 Y75.767 E27.62303
G1 X55.482 Y75.117 E27.65305
G1 X56.163 Y74.524 E27.68308
G1 X56.895 Y73.994 E27.71314
G1 X57.67 Y73.531 E27.74316
G1 X58.483 Y73.138 E27.7732
G1 X59.328 Y72.818 E27.80325
G1 X60.197 Y72.575 E27.83326
G1 X61.085 Y72.409 E27.86331
G1 X62.224 Y72.313 E27.90133
G1 X62.831 Y72.3 E27.92152
G1 X161.94 Y72.301 E31.2179
G1 X162.638 Y72.311 E31.24112
G1 X163.54 Y72.364 E31.27117
G1 X164.433 Y72.496 E31.30119
G1 X165.311 Y72.707 E31.33123
G1 X166.167 Y72.995 E31.36127
G1 X166.994 Y73.357 E31.39129
G1 X167.786 Y73.792 E31.42135
G1 X168.537 Y74.294 E31.45139
G1 X169.24 Y74.861 E31.48143
G1 X169.89 Y75.488 E31.51147
G1 X170.482 Y76.17 E31.54151
G1 X171.012 Y76.901 E31.57154
G1 X171.474 Y77.677 E31.60157
G1 X171.867 Y78.49 E31.63161
G1 X172.185 Y79.335 E31.66164
G1 X172.428 Y80.205 E31.69168
G1 X172.593 Y81.093 E31.72172
G1 X172.688 Y82.223 E31.75944
G1 X172.701 Y82.83 E31.77963
G1 X172.701 Y117.095 E32.91929
G1 X172.738 Y119.701 E33.00597
G1 X172.847 Y122.266 E33.09136
G1 X173.025 Y124.773 E33.17496
G1 X173.276 Y127.314 E33.25988
G1 X173.597 Y129.822 E33.34398
G1 X173.991 Y132.327 E33.42832
G1 X174.453 Y134.814 E33.51245
G1 X174.99 Y137.309 E33.59734
G1 X175.669 Y140.073 E33.692
G1 X175.845 Y140.959 E33.72205
G1 X175.958 Y142.19 E33.76316
G1 X175.973 Y142.83 E33.78445
G1 X175.971 Y151.916 E34.08666
G1 X175.961 Y152.632 E34.11047
G1 X175.908 Y153.534 E34.14052
G1 X175.776 Y154.427 E34.17055
G1 X175.566 Y155.306 E34.20061
G1 X175.278 Y156.162 E34.23065
G1 X174.916 Y156.989 E34.26067
G1 X174.482 Y157.781 E34.29071
G1 X173.98 Y158.532 E34.32075
G1 X173.413 Y159.235 E34.35079
G1 X172.787 Y159.885 E34.38081
G1 X172.105 Y160.478 E34.41087
G1 X171.374 Y161.007 E34.44088
G1 X170.598 Y161.47 E34.47093
G1 X169.785 Y161.863 E34.50097
G1 X168.94 Y162.182 E34.53101
G1 X168.07 Y162.425 E34.56105
G1 X167.183 Y162.591 E34.59107
G1 X166.071 Y162.685 E34.62818
G1 X165.432 Y162.7 E34.64944
G1 X147.342 Y162.7 E35.25112
G1 X145.495 Y162.693 E35.31255
G1 X144.598 Y162.7 E35.34239
G1 X63.076 Y162.699 E38.05382
G1 X62.378 Y162.69 E38.07704
G1 X61.477 Y162.639 E38.10705
G1 X60.583 Y162.507 E38.13711
G1 X59.705 Y162.298 E38.16713
G1 X58.848 Y162.011 E38.19719
G1 X58.021 Y161.65 E38.2272
G1 X57.228 Y161.217 E38.25725
G1 X56.477 Y160.716 E38.28728
G1 X55.773 Y160.15 E38.31732
G1 X55.122 Y159.524 E38.34736
G1 X54.529 Y158.843 E38.37739
G1 X53.999 Y158.112 E38.40742
G1 X53.535 Y157.337 E38.43747
G1 X53.141 Y156.524 E38.46752
G1 X52.821 Y155.68 E38.49754
G1 X52.577 Y154.81 E38.52759
G1 X52.411 Y153.922 E38.55764
G1 X52.314 Y152.767 E38.59619
G1 X52.301 Y152.158 E38.61645
G1 X52.302 Y83.036 E40.91546
G1 F2700 E35.91546
G0 F6000 X61.848 Y153.153
G0 X152.35 Y153.153
G0 X155.033 Y147.1
G0 X155.498 Y147.1
G0 X155.497 Y148.7
G1 F2700 E40.91546
G1 F1200 X155.498 Y147.1 E40.96867
G1 X161.973 Y147.1 E41.18403
G1 X161.972 Y148.7 E41.23725
G1 X155.497 Y148.7 E41.45261
G0 F6000 X155.097 Y149.1
G1 F1200 X155.098 Y146.7 E41.53243
G1 X162.373 Y146.7 E41.7744
G1 X162.372 Y149.1 E41.85422
G1 X155.097 Y149.1 E42.09619
G0 F6000 X154.697 Y149.5
G1 F1200 X154.698 Y146.3 E42.20262
G1 X162.773 Y146.3 E42.4712
G1 X162.772 Y149.5 E42.57763
G1 X154.697 Y149.5 E42.84621
G0 F6000 X154.297 Y149.9
G1 F1200 X154.298 Y145.9 E42.97925
G1 X163.173 Y145.9 E43.27443
G1 X163.172 Y149.9 E43.40747
G1 X154.297 Y149.9 E43.70265
G0 F6000 X153.897 Y150.3
G1 F1200 X153.898 Y145.5 E43.8623
G1 X163.301 Y145.5 E44.17505
G1 X163.573 Y145.474 E44.18414
G1 X163.572 Y150.3 E44.34465
G1 X153.897 Y150.3 E44.66644
G0 F6000 X153.497 Y150.7
G1 F1200 X153.498 Y145.1 E44.8527
G1 X163.301 Y145.1 E45.17875
G1 X163.678 Y145.06 E45.19136
G1 X163.973 Y144.963 E45.20169
G1 X163.972 Y150.7 E45.3925
G1 X153.497 Y150.7 E45.7409
G0 F6000 X153.097 Y151.1
G1 F1200 X153.098 Y144.7 E45.95376
G1 X163.301 Y144.7 E46.29312
G1 X163.633 Y144.66 E46.30424
G1 X163.945 Y144.543 E46.31532
G1 X164.222 Y144.355 E46.32646
G1 X164.373 Y144.187 E46.33397
G1 X164.372 Y151.1 E46.5639
G1 X153.097 Y151.1 E46.93891
G0 F6000 X152.697 Y151.5
G1 F1200 X152.698 Y144.3 E47.17838
G1 X163.301 Y144.3 E47.53104
G1 X163.58 Y144.26 E47.54041
G1 X163.837 Y144.144 E47.54979
G1 X164.052 Y143.961 E47.55918
G1 X164.206 Y143.725 E47.56855
G1 X164.275 Y143.5 E47.57638
G1 X164.773 Y143.5 E47.59294
G1 X164.772 Y151.5 E47.85902
G1 X152.697 Y151.5 E48.26064
G0 F6000 X152.297 Y151.9
G1 F1200 X152.298 Y143.9 E48.52672
G1 X163.301 Y143.9 E48.89268
G1 X163.516 Y143.86 E48.89996
G1 X163.702 Y143.747 E48.90719
G1 X163.835 Y143.574 E48.91445
G1 X163.901 Y143.3 E48.92383
G1 X163.901 Y143.1 E48.93048
G1 X165.173 Y143.1 E48.97278
G1 X165.172 Y151.9 E49.26547
G1 X152.297 Y151.9 E49.6937
G0 F6000 X151.897 Y152.3
G1 F1200 X151.898 Y143.5 E49.98639
G1 X163.301 Y143.5 E50.36565
G1 X163.42 Y143.461 E50.36982
G1 X163.501 Y143.3 E50.37581
G1 X163.501 Y142.7 E50.39577
G1 X165.573 Y142.7 E50.46468
G1 X165.572 Y152.3 E50.78398
G1 X151.897 Y152.3 E51.23881
G1 F2700 E46.23881
G0 F6000 X152.363 Y152.3
G0 X155.033 Y147.38
G0 X155.778 Y147.38
;TYPE:SUPPORT
G1 F2700 E51.23881
G1 F1200 X155.778 Y148.42 E51.2734
G1 X156.298 Y148.42 E51.2907
G1 X161.692 Y148.42 E51.4701
G1 X161.692 Y147.38 E51.50469
G1 X155.778 Y147.38 E51.70139
G0 F6000 X156 Y147.46
G1 F1200 X156 Y148.34 E51.73066
G0 F6000 X155.858 Y148
G1 F1200 X161.612 Y148 E51.92204
G0 F6000 X160 Y148.34
G1 F1200 X160 Y147.46 E51.95131
G0 F6000 X158 Y147.46
G1 F1200 X158 Y148.34 E51.98058
G1 F2700 E46.98058
G0 F6000 X158 Y149.165
G0 X152.363 Y152.3
G0 X151.497 Y152.3
;TYPE:SUPPORT-INTERFACE
G1 F2700 E51.98058
G1 F1200 X147.095 Y152.3 E52.12699
G1 X147.096 Y143.5 E52.41968
G1 X151.498 Y143.5 E52.56609
G1 X151.497 Y152.3 E52.85878
G0 F6000 X151.297 Y151.297
G1 F1200 X147.295 Y147.295 E53.04702
G0 F6000 X147.295 Y147.992
G1 F1200 X151.297 Y143.99 E53.23526
G0 F6000 X151.297 Y144.509
G1 F1200 X150.488 Y143.7 E53.27332
G0 F6000 X148.193 Y143.7
G1 F1200 X147.295 Y144.598 E53.31556
G0 F6000 X147.295 Y143.901
G1 F1200 X151.297 Y147.903 E53.5038
G0 F6000 X151.297 Y147.384
G1 F1200 X147.295 Y151.386 E53.69204
G0 F6000 X147.295 Y150.689
G1 F1200 X148.705 Y152.099 E53.75836
G0 F6000 X149.976 Y152.099
G1 F1200 X151.297 Y150.778 E53.8205
G1 F2700 E48.8205
;MESH:4-link bra??o-punho.stl
G0 F6000 X152.363 Y150.778
G0 X152.35 Y153.153
G0 X146.242 Y153.153
G0 X145.536 Y150.776
G0 X144.451 Y150.776
G0 X143.47 Y151.1
;TYPE:WALL-INNER
G1 F2700 E53.8205
G1 F1200 X143.471 Y142.499 E54.10657
G1 X143.523 Y142.118 E54.11936
G1 X143.692 Y141.717 E54.13383
G1 X144.024 Y141.369 E54.14983
G1 X144.397 Y141.182 E54.16371
G1 X144.806 Y141.101 E54.17757
G1 X161.101 Y141.1 E54.71955
G1 X161.101 Y83.9 E56.62203
G1 X63.901 Y83.9 E59.85491
G1 X63.901 Y117.5 E60.97245
G1 X63.901 Y151.1 E62.08999
G1 X143.47 Y151.1 E64.73647
G0 F6000 X143.87 Y151.5
G1 F1200 X143.873 Y142.422 E65.03841
G1 X143.963 Y142.08 E65.05017
G1 X144.154 Y141.802 E65.06139
G1 X144.319 Y141.665 E65.06852
G1 X144.594 Y141.538 E65.07859
G1 X144.781 Y141.503 E65.08492
G1 X161.501 Y141.5 E65.64103
G1 X161.501 Y83.5 E67.57012
G1 X63.501 Y83.5 E70.82961
G1 X63.501 Y117.5 E71.96046
G1 X63.501 Y151.5 E73.0913
G1 X143.87 Y151.5 E75.76438
G0 F6000 X144.27 Y151.9
G1 F1200 X144.272 Y142.453 E76.07859
G1 X144.314 Y142.275 E76.08468
G1 X144.43 Y142.092 E76.09188
G1 X144.605 Y141.961 E76.09915
G1 X144.793 Y141.9 E76.10573
G1 X161.901 Y141.9 E76.67474
G1 X161.901 Y83.1 E78.63044
G1 X63.101 Y83.1 E81.91654
G1 X63.101 Y117.5 E83.06069
G1 X63.101 Y151.9 E84.20484
G1 X144.27 Y151.9 E86.90453
G0 F6000 X144.67 Y152.3
;TYPE:WALL-OUTER
G1 F1200 X144.671 Y142.45 E87.23214
G1 X144.727 Y142.36 E87.23567
G1 X144.853 Y142.3 E87.24031
G1 X162.301 Y142.3 E87.82063
G1 X162.301 Y82.7 E89.80293
G1 X62.701 Y82.7 E93.11564
G1 X62.701 Y117.5 E94.2731
G1 X62.701 Y152.3 E95.43055
G1 X144.67 Y152.3 E98.15685
G0 F6000 X144.4 Y152.03
G0 X143.109 Y151
G0 X143.109 Y150.74
;TYPE:SKIN
G1 F1200 X143.115 Y142.242 E98.43949
G1 X143.236 Y141.843 E98.45336
G1 X143.405 Y141.523 E98.4654
G1 X143.602 Y141.276 E98.47591
G1 X144.028 Y140.936 E98.49403
G1 X144.498 Y140.779 E98.51052
G1 X144.784 Y140.741 E98.52011
G1 X160.741 Y140.74 E99.05084
G1 X160.741 Y84.26 E100.92938
G1 X64.261 Y84.26 E104.13831
G1 X64.261 Y150.74 E106.34945
G1 X143.109 Y150.74 E108.97194
G1 F2700 E103.97194
G0 F6000 X143.109 Y151
G0 X144.043 Y141.672
G0 X160.929 Y140.928
G0 X161.001 Y84.738
G1 F2700 E108.97194
G0 F6000 X160.54 Y84.738
G1 F1200 X160.261 Y84.459 E108.98507
G0 F6000 X159.695 Y84.459
G1 F1200 X160.54 Y85.303 E109.02479
G0 F6000 X160.54 Y85.869
G1 F1200 X159.13 Y84.459 E109.09111
G0 F6000 X158.564 Y84.459
G1 F1200 X160.54 Y86.435 E109.18406
G0 F6000 X160.54 Y87.001
G1 F1200 X157.998 Y84.459 E109.30362
G0 F6000 X157.433 Y84.459
G1 F1200 X160.54 Y87.566 E109.44977
G0 F6000 X160.54 Y88.132
G1 F1200 X156.867 Y84.459 E109.62253
G0 F6000 X156.301 Y84.459
G1 F1200 X160.54 Y88.698 E109.82192
G0 F6000 X160.54 Y89.263
G1 F1200 X155.736 Y84.459 E110.04789
G0 F6000 X155.17 Y84.459
G1 F1200 X160.54 Y89.829 E110.30048
