;FLAVOR:Marlin
;TIME:4584
;Filament used: 3.933m
;Layer height: 0.25
;MINX:56.512
;MINY:86.512
;MINZ:0.2
;MAXX:178.488
;MAXY:148.488
;MAXZ:6.45
;Generated with Cura_SteamEngine main
M140 S110
M105
M190 S110
M104 S245
M105
M109 S245
M82 ;absolute extrusion mode
; Ender 3 Custom Start G-code
G92 E0 ; Reset Extruder
G28 ; Home all axes
G1 Z2.0 F3000 ; Move Z Axis up little to prevent scratching of Heat Bed
G1 X0.1 Y20 Z0.3 F5000.0 ; Move to start position
G1 X0.1 Y200.0 Z0.3 F1500.0 E15 ; Draw the first line
G1 X0.4 Y200.0 Z0.3 F5000.0 ; Move to side a little
G1 X0.4 Y20 Z0.3 F1500.0 E30 ; Draw the second line
G92 E0 ; Reset Extruder
G1 Z2.0 F3000 ; Move Z Axis up little to prevent scratching of Heat Bed
G1 X5 Y20 Z0.3 F5000.0 ; Move over to prevent blob squish
G92 E0
G92 E0
G1 F2700 E-5
;LAYER_COUNT:26
;LAYER:0
M107
G0 F6000 X69.06 Y92.597 Z0.2
G0 X60.628 Y102.064
;TYPE:SKIRT
G1 F2700 E0
G1 F1200 X61.001 Y101.436 E0.02429
G1 X61.417 Y100.77 E0.05041
G1 X61.852 Y100.109 E0.07673
G1 X62.049 Y99.823 E0.08828
G1 X62.667 Y98.963 E0.1235
G1 X63.131 Y98.359 E0.14884
G1 X63.601 Y97.775 E0.17377
G1 X64.169 Y97.106 E0.20296
G1 X64.834 Y96.37 E0.23595
G1 X65.07 Y96.119 E0.24741
G1 X65.622 Y95.556 E0.27363
G1 X66.204 Y94.991 E0.30061
G1 X66.744 Y94.49 E0.32511
G1 X67.556 Y93.784 E0.3609
G1 X68.161 Y93.287 E0.38694
G1 X69.06 Y92.597 E0.42463
G1 X69.642 Y92.174 E0.44856
G1 X70.582 Y91.538 E0.48631
G1 X71.218 Y91.134 E0.51137
G1 X72.196 Y90.557 E0.54914
G1 X72.845 Y90.197 E0.57382
G1 X74.115 Y89.552 E0.6212
G1 X74.832 Y89.22 E0.64748
G1 X75.554 Y88.908 E0.67364
G1 X76.239 Y88.63 E0.69823
G1 X77.305 Y88.238 E0.73601
G1 X78.001 Y88.004 E0.76043
G1 X79.079 Y87.679 E0.79788
G1 X79.771 Y87.491 E0.82173
G1 X80.918 Y87.221 E0.86092
G1 X81.649 Y87.07 E0.88574
G1 X82.707 Y86.886 E0.92146
G1 X83.493 Y86.772 E0.94788
G1 X84.582 Y86.649 E0.98433
G1 X85.308 Y86.588 E1.00856
G1 X86.808 Y86.519 E1.0585
G1 X87.586 Y86.512 E1.08438
G1 X88.301 Y86.522 E1.10816
G1 X89.038 Y86.549 E1.13269
G1 X89.389 Y86.57 E1.14439
G1 X90.539 Y86.661 E1.18276
G1 X91.331 Y86.75 E1.20927
G1 X92.348 Y86.894 E1.24343
G1 X93.147 Y87.032 E1.2704
G1 X93.872 Y87.174 E1.29497
G1 X94.373 Y87.284 E1.31203
G1 X97.402 Y88.026 E1.41575
G1 X99.866 Y88.56 E1.49961
G1 X102.376 Y89.029 E1.58454
G1 X104.822 Y89.416 E1.6669
G1 X107.339 Y89.742 E1.75132
G1 X109.805 Y89.991 E1.83375
G1 X112.367 Y90.175 E1.91919
G1 X114.829 Y90.283 E2.00115
G1 X117.389 Y90.323 E2.08631
G1 X119.877 Y90.291 E2.16907
G1 X122.398 Y90.188 E2.25298
G1 X124.944 Y90.011 E2.33787
G1 X127.406 Y89.769 E2.42015
G1 X129.916 Y89.452 E2.5043
G1 X132.385 Y89.067 E2.58741
G1 X134.896 Y88.605 E2.67233
G1 X137.322 Y88.087 E2.75483
G1 X139.587 Y87.528 E2.83243
G1 X140.913 Y87.221 E2.8777
G1 X141.663 Y87.067 E2.90316
G1 X142.706 Y86.886 E2.93837
G1 X143.83 Y86.731 E2.97611
G1 X144.919 Y86.618 E3.01252
G1 X145.646 Y86.568 E3.03676
G1 X146.808 Y86.519 E3.07544
G1 X147.587 Y86.512 E3.10136
G1 X148.302 Y86.522 E3.12514
G1 X149.039 Y86.549 E3.14967
G1 X150.202 Y86.631 E3.18845
G1 X150.545 Y86.662 E3.1999
G1 X151.328 Y86.75 E3.22611
G1 X152.024 Y86.845 E3.24947
G1 X152.847 Y86.978 E3.2772
G1 X153.886 Y87.178 E3.31239
G1 X154.605 Y87.337 E3.33688
G1 X154.956 Y87.423 E3.3489
G1 X156.039 Y87.712 E3.38618
G1 X156.796 Y87.94 E3.41248
G1 X157.463 Y88.158 E3.43582
G1 X158.253 Y88.438 E3.46369
G1 X159.252 Y88.827 E3.49935
G1 X160.239 Y89.253 E3.53511
G1 X161.286 Y89.747 E3.57361
G1 X161.93 Y90.078 E3.59769
G1 X162.914 Y90.618 E3.63503
G1 X163.554 Y90.996 E3.65975
G1 X164.22 Y91.411 E3.68585
G1 X164.891 Y91.852 E3.71255
G1 X165.177 Y92.049 E3.72411
G1 X166.049 Y92.676 E3.75983
G1 X166.399 Y92.942 E3.77445
G1 X167.497 Y93.828 E3.82137
G1 X168.118 Y94.367 E3.84872
G1 X168.632 Y94.835 E3.87184
G1 X169.207 Y95.385 E3.89831
G1 X170.003 Y96.197 E3.93613
G1 X170.511 Y96.744 E3.96096
G1 X171.216 Y97.555 E3.9967
G1 X171.715 Y98.163 E4.02286
G1 X172.403 Y99.059 E4.06043
G1 X172.837 Y99.658 E4.08504
G1 X173.46 Y100.579 E4.12202
G1 X173.866 Y101.218 E4.1472
G1 X174.051 Y101.523 E4.15906
G1 X174.588 Y102.45 E4.1947
G1 X174.973 Y103.168 E4.22179
G1 X175.453 Y104.124 E4.25737
G1 X175.777 Y104.825 E4.28306
G1 X176.219 Y105.86 E4.32049
G1 X176.494 Y106.565 E4.34566
G1 X176.762 Y107.305 E4.37184
G1 X176.996 Y108.001 E4.39626
G1 X177.321 Y109.079 E4.43371
G1 X177.509 Y109.771 E4.45756
G1 X177.778 Y110.909 E4.49645
G1 X177.933 Y111.663 E4.52205
G1 X178.112 Y112.693 E4.55682
G1 X178.228 Y113.495 E4.58378
G1 X178.351 Y114.581 E4.62013
G1 X178.412 Y115.307 E4.64436
G1 X178.481 Y116.808 E4.69434
G1 X178.488 Y117.586 E4.72021
G1 X178.478 Y118.302 E4.74403
G1 X178.451 Y119.039 E4.76856
G1 X178.369 Y120.202 E4.80734
G1 X178.338 Y120.545 E4.81879
G1 X178.25 Y121.328 E4.845
G1 X178.155 Y122.024 E4.86836
G1 X178.022 Y122.847 E4.89609
G1 X177.822 Y123.886 E4.93128
G1 X177.663 Y124.605 E4.95577
G1 X177.578 Y124.952 E4.96766
G1 X177.284 Y126.054 E5.00559
G1 X177.06 Y126.796 E5.03137
G1 X176.842 Y127.463 E5.05471
G1 X176.566 Y128.243 E5.08223
G1 X176.173 Y129.25 E5.11818
G1 X175.747 Y130.239 E5.154
G1 X175.253 Y131.286 E5.1925
G1 X174.924 Y131.926 E5.21644
G1 X174.376 Y132.927 E5.25439
G1 X174.002 Y133.557 E5.27876
G1 X173.413 Y134.494 E5.31557
G1 X172.95 Y135.179 E5.34307
G1 X172.523 Y135.778 E5.36754
G1 X172.058 Y136.399 E5.39334
G1 X171.172 Y137.497 E5.44027
G1 X170.633 Y138.118 E5.46762
G1 X170.165 Y138.632 E5.49074
G1 X169.627 Y139.194 E5.51661
G1 X168.805 Y140.001 E5.55493
G1 X168.256 Y140.511 E5.57985
G1 X167.445 Y141.216 E5.61559
G1 X166.837 Y141.715 E5.64175
G1 X165.941 Y142.403 E5.67932
G1 X165.342 Y142.837 E5.70393
G1 X164.421 Y143.46 E5.74091
G1 X163.782 Y143.866 E5.76609
G1 X163.477 Y144.051 E5.77795
G1 X162.55 Y144.588 E5.81359
G1 X161.832 Y144.973 E5.84068
G1 X160.866 Y145.457 E5.87662
G1 X160.179 Y145.774 E5.90178
G1 X159.14 Y146.219 E5.93938
G1 X158.442 Y146.491 E5.96429
G1 X157.697 Y146.761 E5.99065
G1 X156.99 Y146.999 E6.01546
G1 X155.925 Y147.32 E6.05246
G1 X155.221 Y147.51 E6.07671
G1 X154.094 Y147.777 E6.11523
G1 X153.008 Y147.994 E6.15207
G1 X152.294 Y148.114 E6.17615
G1 X151.17 Y148.269 E6.21389
G1 X150.081 Y148.382 E6.2503
G1 X149.354 Y148.432 E6.27454
G1 X148.192 Y148.481 E6.31322
G1 X147.413 Y148.488 E6.33913
G1 X146.698 Y148.478 E6.36291
G1 X145.961 Y148.451 E6.38744
G1 X144.798 Y148.369 E6.42622
G1 X144.455 Y148.338 E6.43768
G1 X143.672 Y148.25 E6.46388
G1 X142.976 Y148.155 E6.48725
G1 X142.153 Y148.022 E6.51497
G1 X141.114 Y147.822 E6.55017
G1 X140.376 Y147.659 E6.5753
G1 X137.595 Y146.975 E6.67056
G1 X135.116 Y146.436 E6.75493
G1 X132.679 Y145.98 E6.8374
G1 X130.171 Y145.583 E6.92185
G1 X127.657 Y145.258 E7.00616
G1 X125.2 Y145.01 E7.0883
G1 X122.631 Y144.825 E7.17397
G1 X120.171 Y144.717 E7.25586
G1 X117.612 Y144.677 E7.34099
G1 X115.124 Y144.709 E7.42374
G1 X112.605 Y144.812 E7.5076
G1 X110.086 Y144.987 E7.59158
G1 X107.565 Y145.234 E7.67583
G1 X105.079 Y145.549 E7.75918
G1 X102.579 Y145.938 E7.84333
G1 X100.125 Y146.391 E7.92633
G1 X97.694 Y146.911 E8.00901
G1 X95.413 Y147.472 E8.08714
G1 X94.087 Y147.779 E8.13241
G1 X93.331 Y147.934 E8.15808
G1 X92.293 Y148.114 E8.19312
G1 X91.507 Y148.228 E8.21953
G1 X90.418 Y148.351 E8.25598
G1 X89.692 Y148.412 E8.28021
G1 X88.192 Y148.481 E8.33016
G1 X87.414 Y148.488 E8.35604
G1 X86.699 Y148.478 E8.37982
G1 X85.962 Y148.451 E8.40435
G1 X85.611 Y148.43 E8.41604
G1 X84.461 Y148.339 E8.45441
G1 X83.669 Y148.25 E8.48092
G1 X82.652 Y148.106 E8.51508
G1 X81.853 Y147.968 E8.54205
G1 X80.742 Y147.743 E8.57975
G1 X80.062 Y147.581 E8.603
G1 X78.953 Y147.286 E8.64117
G1 X78.199 Y147.058 E8.66737
G1 X77.229 Y146.736 E8.70136
G1 X76.433 Y146.444 E8.72956
G1 X75.748 Y146.173 E8.75407
G1 X75.038 Y145.872 E8.77971
G1 X73.736 Y145.264 E8.82751
G1 X73.073 Y144.924 E8.85229
G1 X72.072 Y144.376 E8.89025
G1 X71.436 Y143.999 E8.91484
G1 X70.77 Y143.583 E8.94095
G1 X70.109 Y143.148 E8.96727
G1 X69.221 Y142.522 E9.00341
G1 X68.616 Y142.07 E9.02853
G1 X67.773 Y141.397 E9.0644
G1 X67.491 Y141.162 E9.07661
G1 X66.882 Y140.633 E9.10344
G1 X66.368 Y140.165 E9.12656
G1 X65.793 Y139.615 E9.15303
G1 X64.991 Y138.795 E9.19118
G1 X64.489 Y138.255 E9.2157
G1 X63.784 Y137.444 E9.25144
G1 X63.285 Y136.836 E9.2776
G1 X62.597 Y135.94 E9.31518
G1 X62.174 Y135.358 E9.33911
G1 X61.539 Y134.42 E9.37678
G1 X61.13 Y133.776 E9.40215
G1 X60.558 Y132.807 E9.43958
G1 X60.192 Y132.147 E9.46468
G1 X59.552 Y130.885 E9.51174
G1 X59.221 Y130.17 E9.53795
G1 X58.908 Y129.446 E9.56418
G1 X58.506 Y128.435 E9.60037
G1 X58.238 Y127.695 E9.62655
G1 X58.004 Y126.999 E9.65097
G1 X57.679 Y125.921 E9.68842
G1 X57.491 Y125.229 E9.71227
G1 X57.221 Y124.082 E9.75146
G1 X57.07 Y123.351 E9.77629
G1 X56.886 Y122.293 E9.812
G1 X56.772 Y121.507 E9.83842
G1 X56.649 Y120.418 E9.87487
G1 X56.588 Y119.692 E9.8991
G1 X56.519 Y118.193 E9.94901
G1 X56.512 Y117.414 E9.97492
G1 X56.522 Y116.699 E9.99871
G1 X56.549 Y115.962 E10.02324
G1 X56.57 Y115.611 E10.03493
G1 X56.661 Y114.461 E10.0733
G1 X56.75 Y113.669 E10.09981
G1 X56.894 Y112.652 E10.13397
G1 X57.032 Y111.853 E10.16094
G1 X57.257 Y110.742 E10.19864
G1 X57.419 Y110.062 E10.22189
G1 X57.714 Y108.953 E10.26006
G1 X57.942 Y108.199 E10.28626
G1 X58.264 Y107.229 E10.32025
G1 X58.556 Y106.433 E10.34845
G1 X58.827 Y105.748 E10.37295
G1 X59.128 Y105.038 E10.3986
G1 X59.736 Y103.736 E10.4464
G1 X60.073 Y103.078 E10.47099
G1 X60.628 Y102.064 E10.50943
G1 F2700 E5.50943
G0 F6000 X57.457 Y114.545
G1 F2700 E10.50943
G1 F1200 X57.543 Y113.778 E10.5351
G1 X57.683 Y112.784 E10.56849
G1 X57.817 Y112.006 E10.59475
G1 X58.036 Y110.923 E10.6315
G1 X58.193 Y110.264 E10.65403
G1 X58.481 Y109.18 E10.69133
G1 X58.702 Y108.448 E10.71677
G1 X58.92 Y107.782 E10.74007
G1 X59.188 Y107.025 E10.76678
G1 X59.571 Y106.043 E10.80184
G1 X59.983 Y105.088 E10.83643
G1 X60.45 Y104.096 E10.8729
G1 X60.639 Y103.721 E10.88687
G1 X61.153 Y102.763 E10.92303
G1 X61.319 Y102.468 E10.93429
G1 X61.68 Y101.859 E10.95783
G1 X62.096 Y101.193 E10.98395
G1 X62.518 Y100.552 E11.00948
G1 X63.126 Y99.689 E11.04459
G1 X63.571 Y99.095 E11.06927
G1 X64.224 Y98.277 E11.10409
G1 X64.775 Y97.628 E11.1324
G1 X65.644 Y96.676 E11.17527
G1 X66.179 Y96.13 E11.2007
G1 X66.761 Y95.565 E11.22768
G1 X67.285 Y95.079 E11.25145
G1 X68.293 Y94.211 E11.29569
G1 X68.929 Y93.702 E11.32278
G1 X69.761 Y93.074 E11.35745
G1 X70.39 Y92.629 E11.38308
G1 X71.027 Y92.203 E11.40857
G1 X71.643 Y91.811 E11.43285
G1 X72.599 Y91.248 E11.46976
G1 X73.53 Y90.74 E11.50503
G1 X74.21 Y90.396 E11.53038
G1 X74.838 Y90.095 E11.55354
G1 X75.871 Y89.643 E11.59104
G1 X76.535 Y89.374 E11.61487
G1 X77.855 Y88.895 E11.66157
G1 X78.55 Y88.67 E11.68587
G1 X79.306 Y88.446 E11.7121
G1 X79.975 Y88.265 E11.73515
G1 X81.098 Y88.001 E11.77352
G1 X81.807 Y87.854 E11.7976
G1 X82.839 Y87.675 E11.83244
G1 X83.604 Y87.565 E11.85814
G1 X84.668 Y87.445 E11.89376
G1 X85.37 Y87.386 E11.91719
G1 X86.821 Y87.319 E11.9655
G1 X87.575 Y87.312 E11.99058
G1 X88.585 Y87.33 E12.02418
G1 X89.004 Y87.348 E12.03812
G1 X90.455 Y87.457 E12.08652
G1 X91.222 Y87.543 E12.11219
G1 X92.216 Y87.683 E12.14558
G1 X92.994 Y87.817 E12.17184
G1 X93.719 Y87.959 E12.19641
G1 X94.183 Y88.062 E12.21222
G1 X97.192 Y88.799 E12.31525
G1 X99.726 Y89.349 E12.4015
G1 X102.212 Y89.813 E12.48561
G1 X104.702 Y90.207 E12.56946
G1 X107.263 Y90.538 E12.65535
G1 X109.734 Y90.788 E12.73795
G1 X112.312 Y90.973 E12.82392
G1 X114.816 Y91.083 E12.90728
G1 X117.387 Y91.123 E12.9928
G1 X119.92 Y91.091 E13.07706
G1 X122.45 Y90.987 E13.16128
G1 X124.973 Y90.812 E13.24539
G1 X127.512 Y90.563 E13.33025
G1 X130.002 Y90.248 E13.41372
G1 X132.545 Y89.852 E13.49932
G1 X135.065 Y89.387 E13.58455
G1 X137.464 Y88.875 E13.66614
G1 X139.624 Y88.342 E13.74014
G1 X141.398 Y87.935 E13.80068
G1 X142.124 Y87.795 E13.82527
G1 X142.838 Y87.675 E13.84935
G1 X143.607 Y87.564 E13.87519
G1 X144.666 Y87.445 E13.91063
G1 X145.372 Y87.386 E13.9342
G1 X146.82 Y87.319 E13.98241
G1 X147.576 Y87.312 E14.00756
G1 X148.587 Y87.33 E14.04119
G1 X149.328 Y87.368 E14.06586
G1 X150.46 Y87.457 E14.10363
G1 X150.92 Y87.506 E14.11902
G1 X152.219 Y87.684 E14.16263
G1 X153.006 Y87.82 E14.18919
G1 X153.731 Y87.963 E14.21377
G1 X154.428 Y88.117 E14.23751
G1 X155.512 Y88.395 E14.27473
G1 X156.266 Y88.613 E14.30084
G1 X157.507 Y89.019 E14.34426
G1 X158.272 Y89.3 E14.37137
G1 X159.26 Y89.697 E14.40679
G1 X159.902 Y89.979 E14.43011
G1 X160.924 Y90.46 E14.46768
G1 X161.548 Y90.781 E14.49102
G1 X162.511 Y91.309 E14.52754
G1 X163.131 Y91.675 E14.55149
G1 X163.797 Y92.09 E14.57759
G1 X164.713 Y92.7 E14.61419
G1 X165.565 Y93.313 E14.6491
G1 X166.14 Y93.755 E14.67322
G1 X166.976 Y94.435 E14.70907
G1 X167.579 Y94.959 E14.73564
G1 X168.325 Y95.645 E14.76935
G1 X168.863 Y96.173 E14.79442
G1 X169.63 Y96.967 E14.83114
G1 X170.145 Y97.536 E14.85666
G1 X170.609 Y98.076 E14.88034
G1 X171.094 Y98.667 E14.90577
G1 X171.765 Y99.543 E14.94247
G1 X172.186 Y100.124 E14.96633
G1 X172.795 Y101.024 E15.00248
G1 X173.189 Y101.643 E15.02688
G1 X173.886 Y102.834 E15.07278
G1 X174.26 Y103.529 E15.09903
G1 X174.604 Y104.209 E15.12438
G1 X174.909 Y104.847 E15.1479
G1 X175.355 Y105.866 E15.18489
G1 X175.631 Y106.548 E15.20936
G1 X176.105 Y107.855 E15.2556
G1 X176.33 Y108.55 E15.2799
G1 X176.554 Y109.306 E15.30613
G1 X176.735 Y109.975 E15.32918
G1 X177.065 Y111.398 E15.37776
G1 X177.204 Y112.12 E15.40222
G1 X177.368 Y113.116 E15.43579
G1 X177.436 Y113.605 E15.45221
G1 X177.555 Y114.667 E15.48776
G1 X177.614 Y115.369 E15.51119
G1 X177.681 Y116.82 E15.5595
G1 X177.688 Y117.574 E15.58458
G1 X177.67 Y118.587 E15.61828
G1 X177.632 Y119.328 E15.64295
G1 X177.543 Y120.46 E15.68072
G1 X177.494 Y120.92 E15.69611
G1 X177.316 Y122.219 E15.73971
G1 X177.18 Y123.006 E15.76628
G1 X177.037 Y123.731 E15.79086
G1 X176.883 Y124.428 E15.8146
G1 X176.517 Y125.827 E15.8627
G1 X176.299 Y126.548 E15.88775
G1 X176.081 Y127.215 E15.91109
G1 X175.813 Y127.971 E15.93777
G1 X175.303 Y129.26 E15.98387
G1 X175.021 Y129.902 E16.00719
G1 X174.54 Y130.924 E16.04476
G1 X174.221 Y131.545 E16.06798
G1 X173.685 Y132.524 E16.1051
G1 X173.324 Y133.134 E16.12868
G1 X172.908 Y133.801 E16.15483
G1 X172.487 Y134.442 E16.18033
G1 X172.299 Y134.715 E16.19136
G1 X171.687 Y135.565 E16.22619
G1 X171.245 Y136.14 E16.25032
G1 X170.565 Y136.976 E16.28616
G1 X170.041 Y137.579 E16.31273
G1 X169.358 Y138.322 E16.3463
G1 X168.838 Y138.853 E16.37101
G1 X168.247 Y139.428 E16.39844
G1 X167.715 Y139.922 E16.42259
G1 X166.924 Y140.609 E16.45743
G1 X166.333 Y141.094 E16.48286
G1 X165.457 Y141.765 E16.51956
G1 X164.876 Y142.186 E16.54343
G1 X163.976 Y142.795 E16.57957
G1 X163.357 Y143.189 E16.60397
G1 X162.166 Y143.886 E16.64987
G1 X161.471 Y144.26 E16.67612
G1 X160.791 Y144.604 E16.70147
G1 X159.861 Y145.04 E16.73563
G1 X158.845 Y145.476 E16.7724
G1 X158.169 Y145.739 E16.79653
G1 X157.424 Y146.009 E16.82288
G1 X156.74 Y146.239 E16.84689
G1 X155.697 Y146.553 E16.88311
G1 X154.727 Y146.809 E16.91648
G1 X153.913 Y146.998 E16.94428
G1 X153.181 Y147.149 E16.96913
G1 X152.162 Y147.325 E17.00353
G1 X151.393 Y147.436 E17.02937
G1 X150.334 Y147.555 E17.06481
G1 X149.628 Y147.614 E17.08838
G1 X148.18 Y147.681 E17.13659
G1 X147.424 Y147.688 E17.16174
G1 X146.413 Y147.67 E17.19537
G1 X145.672 Y147.632 E17.22005
G1 X144.54 Y147.543 E17.25781
G1 X144.08 Y147.494 E17.2732
G1 X142.781 Y147.316 E17.31681
G1 X141.994 Y147.18 E17.34337
G1 X140.975 Y146.975 E17.37794
G1 X140.554 Y146.879 E17.3923
G1 X137.771 Y146.194 E17.48763
G1 X135.296 Y145.656 E17.57187
G1 X132.808 Y145.19 E17.65606
G1 X130.295 Y144.793 E17.74068
G1 X127.732 Y144.461 E17.82664
G1 X125.265 Y144.212 E17.90911
G1 X122.689 Y144.027 E17.99501
G1 X120.184 Y143.917 E18.0784
G1 X117.614 Y143.877 E18.16389
G1 X115.081 Y143.909 E18.24815
G1 X112.551 Y144.013 E18.33237
G1 X110.024 Y144.189 E18.41662
G1 X107.49 Y144.437 E18.5013
G1 X104.998 Y144.752 E18.58485
G1 X102.454 Y145.148 E18.67048
G1 X99.956 Y145.609 E18.75497
G1 X97.499 Y146.135 E18.83854
G1 X95.372 Y146.659 E18.9114
G1 X93.597 Y147.066 E18.97197
G1 X92.875 Y147.205 E18.99642
G1 X92.161 Y147.325 E19.0205
G1 X91.396 Y147.435 E19.04621
G1 X90.332 Y147.555 E19.08182
G1 X89.63 Y147.614 E19.10525
